X: 24650
T: Macedonian Oro
R: reel
M: 4/4
K: Eminor
|:eff fz fg|a{e}g2 fe ef|^d2 c cz cz|B2 F Bz Bz:|
|:ABA ({A}c)z ({A}c)z|cBA ^de ef|^d2 c cz cz|B2 F Bz Bz:|
|:({B}f4)-f3-|f4-f3|e4-e3-|e3-e2 ({e}f)g|
aa/a/g fe ef|^d2 c cz ^dz|^d2 c cz cz|B2 F Bz Bz:|
|:^d2 c cz cz|^d2 c cz ^de|^d2 c cz cz|B2 F Bz Bz:|

